X: 7021
T: Chief's
R: jig
M: 6/8
K: Ddorian
|:D^FA dDd|cAe Ace|D^FA ded|cAG =F2E|
D^FA dDd|cAe Ace|eEe dDd|c3 AGE:|
|:D2a age|f2d dcG|A2a age|fed cAG|
A2a age|f2d dcA|f3 e3|1 ded cAG|2 ded cGE:|

